X:1
T:8 Lieder und Gesänge, Op.58
T:Blinde Kuh
T:8 Lieder und Gesänge, Op.58 
T:1. Blinde Kuh
T:Johannes Brahms
T:August Kopisch
T:OpenScore (CC0)
T:OpenScore (CC0)
T:OpenScore (CC0)
C:Johannes Brahms
Z:August Kopisch
Z:OpenScore (CC0)
%%score 1 { ( 2 4 ) | 3 }
L:1/8
Q:1/4=110
M:2/4
K:Bb
V:1 treble nm="Singstimme\nVoice"
V:2 treble nm="Pianoforte"
V:4 treble 
V:3 bass 
V:1
"^Vivace" z z2 |: z4 | z4 | z4 | z2 z G | B A G B | d2 A A | c d B A | G2 z B | d d ^c c | %10
w: ||||Im|Fin- stern geh ich|su- chen, mein|Kind, wo steckst du|wohl? Ach,|sie ver- steckt sich|
w: ||||Im|Fin- stern geh ich|su- chen, mein|Kind, wo steckst du|wohl? Ich,|der den Ort nicht|
 g2 ^f z | =f2 _e e | d2 ^c2 | d2 z2 | f2 _e g | (f>d e>c | d>B c2- | c/e/d/c/ B) A | G2 z2 :| z4 | %20
w: im- mer,|daß ich ver-|schmach- ten|soll,|daß ich ver-|schmach- * * *||* * * * * ten|soll!||
w: fin- de,|ich irr im|Kreis um-|her,|ich irr im|Kreis _ _ _|_ _ _|* * * * * um-|her!||
 z4 | z2 z"^animato" =B ||[K:G] d2 !>!g2 | f2 z e | d2 ^c d | (^c2 B) z | e2 B c | d2 A2 | e2 B c | %29
w: |Wer|um dich|stirbt, der|hat kei- ne|Ruh! _|Kind- chen, er-|barm dich,|Kind- chen, er-|
w: |||||||||
 d2 A B | c2 G2 | A2 z ^A | (Bd) (dg) | f2 z e | d2 ^c d | (^c2[Q:1/4=105] B) z | %36
w: barm dich und|komm her-|zu! Wer|um _ dich _|stirbt, der|hat kei- ne|Ruh! _|
w: |||||||
[Q:1/4=100] e2 B c |[Q:1/4=97] d2 A2 | e2 B c | d2 A B | c2 G2 | A2[Q:1/4=100] z"^animato" B | %42
w: Kind- chen, er-|barm dich,|Kind- chen, er-|barm dich und|komm her-|zu, ja|
w: ||||||
 c2 e2[Q:1/4=105] |[Q:1/4=110] g4 | z2 c2 | g4 | z2 A2- | A2 A2 | g4- | g3 z |[Q:1/4=100] z4 | %51
w: komm her-|zu,|her-|zu,|komm|_ her-|zu!|_||
w: |||||||||
 !fermata!z4 |] %52
w: |
w: |
V:2
!p! G/A/ B/A/G/B/ |:!p! d/A/B/G/ c/B/A/G/ | B/^F/G/E/!p!!>(! A/G/=F/E/!>)! | %3
!p!!>(! F/E/D/C/!>)!!p!!>(! D/C/B,/A,/!>)! |!p! B,/A,/G,/A,/ B,/D/G/A/ | B/D/A/C/ G/B,/B/D/ | %6
 d/A/D/A/ d/A/D/A/ | c/G/d/A/ B/D/A/C/ | B,/D/G/A/ B/A/G/B/ | A/G/=F/A/ G/F/=E/G/ | %10
 =e/B/G/e/ d/A/^F/d/- | d/c/B/A/ B/A/G/B/- | B/A/G/=F/ G/F/=E/G/ | F/=E/D/E/ F/A/^c/=e/ | %14
 d/B/d/f/ _e/G/B/g/ | f/^c/d/B/ e/=B/=c/A/ | d/A/B/G/ c>G | c>A B/D/A/C/ | B,/D/G/A/ B/A/G/B/ :| %19
"^animato" d4 | d2 d2 |"^*" d2 d2 ||[K:G]!f! d2 x2 |!f! a/f/c/A/ g/e/^c/G/ | %24
 (F/!<(!E/D/F/ G/^c/e/!<)!g/) |!f! f/e/^c/E/!>(! d/B/F/!>)!!mp!D/ |!p! e/E/z/B/ e/E/z/c/ | %27
 d/D/z/A/ d/D/z/A/ | e/E/z/B/ e/E/z/c/ | d/D/z/A/ d/D/z/B/ | c/!<(!C/z/B/ c/C/z/G/ | %31
 [FA]/D/z/[F-A]/ [F^A]/D/z/[FA]/ | ([GB]/=A/G/A/ B/d/g/!<)!!f!b/) | a/f/c/A/ g/e/^c/G/ | %34
!<(! (F/E/D/F/ G/^c/e/g/)!<)! | f/e/^c/E/!>(! d/B/F/!>)!!mf!D/ |!p! e/E/z/B/ e/E/z/c/ | %37
 d/D/z/A/ d/D/z/A/ | e/E/z/B/ e/E/z/c/ | d/D/z/A/ d/D/z/B/ | c/C/z/B/ c/C/z/G/ | %41
 [FA]/"_cresc."D/z/[=F-A]/ [FB]/D/z/[FB]/ | c>A c>A |!mp! B/"_cresc."A/G/B/ d/A/B/G/ | c>A c>A | %45
 B/A/G/B/ d/A/B/!mf!G/ |!<(! c>A c>A | c>A c>A!<)! |!f! [DB]/A/G/A/ B/d/g/a/ | %49
 [db]/a/g/a/ b/!8va(!d'/g'/a'/ | !arpeggio!.[bd'b']!8va)! z !arpeggio!.[GBg] z | %51
 !fermata![B,DG]4 |] %52
V:3
 z G,/A,/B,/G,/ |: ^F,/D/G,/B,/ E,/C/G,/C/ | D,/B,/E,/G,/ C,/A,/E,/A,/ | %3
 A,,/G,/E,/G,/ D,,/D,/C,/^F,/ | G,,/D,/B,,/D,/ G,/D,/B,,/A,,/ | G,,/B,,/D,/^F,/ B,,/D,/F,/G,/ | %6
 ^F,,/A,,/D,/^F,/ D,/F,/A,/C/ | =E,/C/^F,/D/ G,/B,/D,/F,/ | G,,/B,,/D,/^F,/ G,/A,/B,/G,/ | %9
 F,/G,/A,/F,/ =E,/F,/G,/E,/ | ^C,/=E,/A,/C,/ D,/^F,/A,/D,/ | B,,/D,/=F,/B,/ G,,/B,,/_E,/G,/ | %12
 A,,/D,/F,/A,/ A,,/^C,/=E,/A,/ | D,,/F,,/A,,/^C,/ D,/F,/A,/^C/ | B,/D/F/D/ G,/B,/_E/B,/ | %15
 A,/F/B,/D/ G,/E/A,/C/ | ^F,/D/G,/B,/ =E,/C/G,/C/ | ^F,/D/A,/D/ G,/B,/D,/F,/ | %18
 G,,>D, G,/A,/B,/G,/ :| G,,>D, G,/A,/=B,/G,/ | G,,>D, G,>D, | G,,>(D, G,>)D, || %22
[K:G] G,,/B,,/D,/F,/ G,/D,/B,,/G,,/ | A,,/C,/F,/A,/ ^A,,/^C,/E,/^A,/ | %24
 B,,/D,/F,/B,/ E,,/G,,/^C,/E,/ | F,,/^A,,/^C,/F,/ B,,/D,/F,/B,/ | ^G,,/B,,/E,/^G,/ A,,/C,/E,/A,/ | %27
 F,,/A,,/D,/F,/ F,,/A,,/D,/F,/ | ^G,,/B,,/E,/^G,/ A,,/C,/E,/A,/ | F,,/A,,/D,/F,/ G,,/B,,/D,/G,/ | %30
"_*  In the 1926-27 edition, B  signs in the piano RH are not present in measure 22" E,,/G,,/C,/E,/ _E,,/G,,/C,/_E,/ | %31
 D,,/F,,/A,,/D,/ D,/F,/C/D,/ | G,,/B,,/D,/F,/ G,/D,/B,,/G,,/ | A,,/C,/F,/A,/ ^A,,/^C,/E,/^A,/ | %34
 B,,/D,/F,/B,/ E,,/G,,/^C,/E,/ | F,,/^A,,/^C,/F,/ B,,/D,/F,/B,/ | ^G,,/B,,/E,/^G,/ A,,/C,/E,/A,/ | %37
 F,,/A,,/D,/F,/ F,,/A,,/D,/F,/ | ^G,,/B,,/E,/^G,/ A,,/C,/E,/A,/ | F,,/A,,/D,/F,/ G,,/B,,/D,/G,/ | %40
 E,,/G,,/C,/E,/ _E,,/G,,/C,/_E,/ | D,,/A,,/D,/ z/ G,,/D,/G,/ z/ | G,,/C,/G,/ z/ C,,/G,,/C,/ z/ | %43
 G,,>D, G,2 | G,,/C,/G,/ z/ C,,/G,,/C,/ z/ | G,,>D, G,2 | G,,/C,/G,/ z/ G,,/C,/G,/ z/ | %47
 C,,/G,,/C,/ z/ C,,/G,,/C,/ z/ | G,,>D, G,/B,/D/F/ |[K:treble] G,>D G/B/d/f/ | %50
 !arpeggio!.[Gdg] z[K:bass] !arpeggio!.[G,B,D] z | !fermata![G,,,G,,]4 |] %52
V:4
 x3 |: x4 | x4 | x4 | x4 | x4 | x4 | x4 | x4 | x4 | x4 | x4 | x4 | x4 | x4 | x4 | x4 | x4 | x4 :| %19
 z/ D/G/A/!<(! =B/A/G/B/ | z/ D/G/A/ =B/D/G/A/ | B/D/G/A/ B/D/G/A/!<)! || %22
[K:G] B/!<(!A/G/A/ B/d/g/!<)!b/ | x4 | x4 | x4 | x4 | x4 | x4 | x4 | x4 | x4 | x4 | x4 | x4 | x4 | %36
 x4 | x4 | x4 | x4 | x4 | x4 | E2 [EG]2 | D2 =F2 | E2 [EG]2 | D2 =F2 | E2 [EG]2 | [EG]2 [EG]2 | %48
 x4 | x5/2!8va(! x3/2 | x!8va)! x3 | x4 |] %52

